icons/desktop/32/golf-32.svg

<svg width="32" height="32" viewBox="0 0 32 32" fill="none" xmlns="http://www.w3.org/2000/svg">
<path d="M16 24C17.8589 24 19.5418 24.1427 21.0127 24.3477C21.5776 24.4266 21.9998 24.9048 22 25.4756L22.002 25.4766C22.002 26.0575 21.5622 26.5463 20.9844 26.6074L19.2773 26.7998C18.2653 26.9138 17.501 27.7691 17.501 28.7871V29.5C17.501 30.328 16.829 31 16.001 31C15.173 31 14.501 30.328 14.501 29.5V28.7871C14.501 27.7701 13.7356 26.9138 12.7246 26.7998L11.0176 26.6074C10.4388 26.5463 10 26.0584 10 25.4766C10.0002 24.9148 10.412 24.4286 10.9678 24.3506C12.8398 24.0886 14.537 24 16 24Z" fill="black"/>
<path d="M13.5 10C14.3284 10 15 10.6716 15 11.5C15 12.3284 14.3284 13 13.5 13C12.6716 13 12 12.3284 12 11.5C12 10.6716 12.6716 10 13.5 10Z" fill="black"/>
<path d="M18.5 10C19.3284 10 20 10.6716 20 11.5C20 12.3284 19.3284 13 18.5 13C17.6716 13 17 12.3284 17 11.5C17 10.6716 17.6716 10 18.5 10Z" fill="black"/>
<path d="M16 6.5C16.8284 6.5 17.5 7.17157 17.5 8C17.5 8.82843 16.8284 9.5 16 9.5C15.1716 9.5 14.5 8.82843 14.5 8C14.5 7.17157 15.1716 6.5 16 6.5Z" fill="black"/>
<path fill-rule="evenodd" clip-rule="evenodd" d="M16 2C21.5228 2 26 6.47715 26 12C26 17.5228 21.5228 22 16 22C10.4772 22 6 17.5228 6 12C6 6.47715 10.4772 2 16 2ZM16 4.5C11.8579 4.5 8.5 7.85786 8.5 12C8.5 16.1421 11.8579 19.5 16 19.5C20.1421 19.5 23.5 16.1421 23.5 12C23.5 7.85786 20.1421 4.5 16 4.5Z" fill="black"/>
</svg>

<!-- This Source Code Form is subject to the terms of the Mozilla Public
   - License, v. 2.0. If a copy of the MPL was not distributed with this
   - file, You can obtain one at http://mozilla.org/MPL/2.0/. -->
<svg xmlns="http://www.w3.org/2000/svg" width="32" height="32" fill="context-fill" fill-opacity="context-fill-opacity" viewBox="0 0 32 32">
    <path d="M16 24c1.859 0 3.542.143 5.013.348.565.079.987.557.987 1.128h.002c0 .582-.44 1.07-1.018 1.131l-1.707.193a2 2 0 0 0-1.776 1.987v.713a1.5 1.5 0 0 1-3 0v-.713a2 2 0 0 0-1.776-1.987l-1.707-.193A1.137 1.137 0 0 1 10 25.477c0-.562.412-1.048.968-1.126A36 36 0 0 1 16 24M13.5 10a1.5 1.5 0 1 1 0 3 1.5 1.5 0 0 1 0-3M18.5 10a1.5 1.5 0 1 1 0 3 1.5 1.5 0 0 1 0-3M16 6.5a1.5 1.5 0 1 1 0 3 1.5 1.5 0 0 1 0-3" />
    <path fill-rule="evenodd" d="M16 2c5.523 0 10 4.477 10 10s-4.477 10-10 10S6 17.523 6 12 10.477 2 16 2m0 2.5a7.5 7.5 0 1 0 0 15 7.5 7.5 0 0 0 0-15" clip-rule="evenodd" />
</svg>
